themes/vice/icons/clear-all.svg

<svg xmlns="http://www.w3.org/2000/svg" width="16" height="16">
    <path style="fill:#dfdfdf" d="M15 4H5v2h10zm-2 3H3v2h10zm-2 3H1v2h10z"/>
</svg>

<svg xmlns="http://www.w3.org/2000/svg" width="16" height="16" version="1.1">
 <path style="fill:#dfdfdf" d="M 15,4 H 5 V 6 H 15 Z M 13,7 H 3 V 9 H 13 Z M 11,10 H 1 V 12 H 11 Z"/>
</svg>
